X: 21
T:The welch Hornpipe
M:6/4
L:1/8
S:Wright 1713
Z:p
K:D
A2|Bcd2c4BAF2|GFEDC2E4A2|Bcd2c4BAF2|GFED A,2D4||
EF|GFEDE2A4EF|GFEDC2E4EF|GFEDF2A4Bc|dcBAd2D4||
Bc|dcBAd2D4EF|GFEDC2E4 Bc|dcBAd2D4EF |GFEDA,2D4||
